ion/telescope-outline.svg

<svg viewBox="0 0 512 512" xmlns="http://www.w3.org/2000/svg"><g stroke-linecap="round" stroke-width="32" stroke="#000" fill="none" stroke-linejoin="round"><path d="M39.93 327.56l-4.71-8.13h-.001c-6.64-11.48-2.71-26.16 8.77-32.79 0-.01 0-.01 0-.01l86.87-50.07v0c7.64-4.44 17.43-1.83 21.86 5.81 0 .01.01.02.02.04l12.71 22v0c4.41 7.65 1.79 17.43-5.86 21.85l-86.85 50.07h0c-11.5 6.62-26.19 2.68-32.83-8.79Z"/><path d="M170.68 273.72L147.12 233h-.001c-6.63-11.49-2.69-26.16 8.8-32.78l124.46-71.75v0c7.64-4.44 17.43-1.83 21.86 5.81 0 .01.01.02.02.04l31.57 54.59v0c4.4 7.64 1.79 17.41-5.84 21.84l-124.49 71.74h0c-11.47 6.64-26.16 2.73-32.8-8.73 -.02-.02-.03-.04-.04-.06Z"/><path d="M341.85 202.21l-46.51-80.43v0c-6.63-11.49-2.69-26.16 8.8-32.78l93.29-53.78v0c11.49-6.63 26.18-2.7 32.84 8.78l46.51 80.43v0c6.62 11.47 2.69 26.15-8.79 32.78 -.01 0-.01 0-.02 0l-93.29 53.78v-.001c-11.5 6.62-26.2 2.69-32.84-8.79Z"/><path d="M127.59 480l96.14-207.99"/><path d="M271.8 256.02L368.55 448"/></g></svg>

<svg xmlns="http://www.w3.org/2000/svg" viewBox="0 0 512 512"><path fill="none" stroke="#000" stroke-linecap="round" stroke-linejoin="round" stroke-width="32" d="M39.93,327.56l-4.71-8.13A24,24,0,0,1,44,286.64l86.87-50.07a16,16,0,0,1,21.89,5.86l12.71,22a16,16,0,0,1-5.86,21.85L72.76,336.35A24.06,24.06,0,0,1,39.93,327.56Z"/><path fill="none" stroke="#000" stroke-linecap="round" stroke-linejoin="round" stroke-width="32" d="M170.68,273.72,147.12,233a24,24,0,0,1,8.8-32.78l124.46-71.75a16,16,0,0,1,21.89,5.86l31.57,54.59A16,16,0,0,1,328,210.76L203.51,282.5A24,24,0,0,1,170.68,273.72Z"/><path fill="none" stroke="#000" stroke-linecap="round" stroke-linejoin="round" stroke-width="32" d="M341.85,202.21l-46.51-80.43A24,24,0,0,1,304.14,89l93.29-53.78A24.07,24.07,0,0,1,430.27,44l46.51,80.43a24,24,0,0,1-8.8,32.79L374.69,211A24.06,24.06,0,0,1,341.85,202.21Z"/><line fill="none" stroke="#000" stroke-linecap="round" stroke-linejoin="round" stroke-width="32" x1="127.59" y1="480" x2="223.73" y2="272.01"/><line fill="none" stroke="#000" stroke-linecap="round" stroke-linejoin="round" stroke-width="32" x1="271.8" y1="256.02" x2="368.55" y2="448"/></svg>
